assets/file-and-folder.svg

<?xml version="1.0" encoding="UTF-8"?>
<svg id="_Слой_1" data-name="Слой_1" xmlns="http://www.w3.org/2000/svg" version="1.1" xmlns:xlink="http://www.w3.org/1999/xlink" viewBox="0 0 64 64">
  <!-- Generator: Adobe Illustrator 30.4.0, SVG Export Plug-In . SVG Version: 2.1.4 Build 226)  -->
  <defs>
    <style>
      .st0 {
        fill: url(#_Безымянный_градиент_4);
      }

      .st1 {
        fill: #d9eeff;
      }

      .st2 {
        fill: none;
        stroke: #08f;
        stroke-linejoin: round;
        stroke-width: 3px;
      }
    </style>
    <linearGradient id="_Безымянный_градиент_4" data-name="Безымянный градиент 4" x1="32" y1="13" x2="32" y2="52" gradientUnits="userSpaceOnUse">
      <stop offset="0" stop-color="#08f"/>
      <stop offset="1" stop-color="#000"/>
    </linearGradient>
  </defs>
  <path class="st0" d="M8,18.5c0-3.02,2.48-5.5,5.5-5.5h9.74c1.13,0,2.21.45,3.01,1.25l2.51,2.51c.8.8,1.88,1.25,3.01,1.25h18.74c3.02,0,5.5,2.48,5.5,5.5v22c0,3.59-2.91,6.5-6.5,6.5H14.5c-3.59,0-6.5-2.91-6.5-6.5v-27Z"/>
  <path class="st1" d="M8.5,25h47v20.5c0,3.3-2.7,6-6,6H14.5c-3.3,0-6-2.7-6-6v-20.5Z"/>
  <path class="st2" d="M8,24.5h48v21c0,3.6-2.9,6.5-6.5,6.5H14.5c-3.6,0-6.5-2.9-6.5-6.5v-21Z"/>
</svg>

<svg xmlns="http://www.w3.org/2000/svg" viewBox="0 0 64 64" fill="none">
  <path d="M8 18.5C8 15.5 10.5 13 13.5 13H25L30 18H50.5C53.5 18 56 20.5 56 23.5V45.5C56 49.1 53.1 52 49.5 52H14.5C10.9 52 8 49.1 8 45.5V18.5Z" fill="#0088FF"/>
  <path d="M8.5 25H55.5V45.5C55.5 48.8 52.8 51.5 49.5 51.5H14.5C11.2 51.5 8.5 48.8 8.5 45.5V25Z" fill="#D9EEFF"/>
  <path d="M22 10.5H43C45.5 10.5 47.5 12.5 47.5 15V40C47.5 42.5 45.5 44.5 43 44.5H22C19.5 44.5 17.5 42.5 17.5 40V15C17.5 12.5 19.5 10.5 22 10.5Z" fill="white" stroke="#0088FF" stroke-width="3"/>
  <path d="M25 23H40" stroke="#1A1A1A" stroke-width="3" stroke-linecap="round"/>
  <path d="M25 31H38" stroke="#1A1A1A" stroke-width="3" stroke-linecap="round"/>
  <path d="M25 39H34" stroke="#1A1A1A" stroke-width="3" stroke-linecap="round"/>
  <path d="M8 24.5H56V45.5C56 49.1 53.1 52 49.5 52H14.5C10.9 52 8 49.1 8 45.5V24.5Z" stroke="#0088FF" stroke-width="3" stroke-linejoin="round"/>
</svg>
